samples/images/react-elements-card-payment.svg

<svg height="64" viewBox="0 0 202 64" width="202" xmlns="http://www.w3.org/2000/svg"><g fill="none" fill-rule="evenodd"><rect fill="#fff" height="28" opacity=".8" rx="4" width="202"/><g transform="translate(0 36)"><rect fill="#4e5663" height="28" rx="4" width="202"/><text style="opacity:.7;font-family:-apple-system, BlinkMacSystemFont, 'Segoe UI', Roboto, sans-serif;font-size:14;font-weight:500;letter-spacing:-.154;fill:#fff"><tspan x="63" y="19">Pay $29.90</tspan></text></g><text fill="#1a1f36" font-family="-apple-system, BlinkMacSystemFont, 'Segoe UI', Roboto, sans-serif" font-size="12" font-weight="500" opacity=".797503"><tspan x="9" y="19">4242 4242 4242 4242</tspan></text><g fill-rule="nonzero" opacity=".5" transform="translate(171 6)"><rect height="15.5" rx="2" stroke="#4f566b" stroke-width=".5" width="23.5" x=".25" y=".25"/><path d="m3.28773262 5.91443732c-.52314173-.28693137-1.12019372-.51769955-1.78773262-.6778442l.0280005-.12471102h2.73697872c.37098332.01300346.67201191.12462375.76996714.51882925l.59482061 2.83587917.18221641.85413565 1.66598301-4.20884407h1.79882257l-2.67390785 6.1656463h-1.79891559zm7.31224258 5.36963648h-1.70114643l1.06401886-6.1721917h1.70105337zm6.1668069-6.02129922-.2313529 1.3328108-.1538632-.06554092c-.3078194-.12479829-.7141522-.2495093-1.2671852-.2363313-.6716398 0-.9728545.26905813-.9798314.53174543 0 .28895604.3643786.47938251.9593659.76179318.9801104.43993579 1.4347231.97831385 1.4279323 1.68093694-.0137677 1.28044789-1.1758348 2.10786929-2.9607967 2.10786929-.7631763-.0066327-1.4982591-.1579615-1.8972429-.3284901l.2380507-1.38552277.224004.09861682c.5530331.23004776.9169465.32831555 1.5961213.32831555.4897761 0 1.0149017-.19060107 1.0215995-.60409358 0-.26923267-.2237249-.46637906-.8818761-.76842582-.6439184-.29558867-1.5048639-.78797464-1.4909101-1.67447884.0072559-1.20155443 1.1902536-2.04197926 2.8701904-2.04197926.6580581 0 1.1902536.13788902 1.5257944.26277458zm2.2609703 3.83471102h1.4139786c-.0699548-.30859213-.3921-1.78601186-.3921-1.78601186l-.1188858-.5318327c-.0840015.22978594-.2308878.60409353-.2238179.59091553 0 0-.5390794 1.3723448-.6791749 1.72692903zm2.0998512-3.9856035 1.3723964 6.1721044h-1.5750977s-.1541422-.7091684-.2029803-.9258637h-2.1841317c-.0631639.1640705-.3570296.9258637-.3570296.9258637h-1.7849619l2.5268355-5.65999506c.1750729-.40057632.4833574-.51210934.889132-.51210934z" fill="#3c4257"/></g></g></svg>

<?xml version="1.0" encoding="UTF-8"?>
<svg width="202px" height="68px" viewBox="0 0 202 68" version="1.1" xmlns="http://www.w3.org/2000/svg" xmlns:xlink="http://www.w3.org/1999/xlink">
    <!-- Generator: Sketch 57.1 (83088) - https://sketch.com -->
    <title>CardC</title>
    <desc>Created with Sketch.</desc>
    <g id="Recipes-v0" stroke="none" stroke-width="1" fill="none" fill-rule="evenodd">
        <g id="recipes-home-v0" transform="translate(-174.000000, -886.000000)">
            <g id="Group-6" transform="translate(124.000000, 798.000000)">
                <g id="CardC" transform="translate(50.000000, 88.000000)">
                    <rect id="Rectangle" fill="#FFFFFF" opacity="0.800000012" x="0" y="0" width="202" height="28" rx="4"></rect>
                    <rect id="Rectangle-Copy-3" fill="#09825D" x="0" y="40" width="202" height="28" rx="4"></rect>
                    <text id="Pay-Now" opacity="0.699999988" font-family="Helvetica" font-size="16" font-weight="normal" fill="#F7FAFC">
                        <tspan x="73" y="60">Pay Now</tspan>
                    </text>
                    <text id="4242-4242-4242-4242" opacity="0.669999957" font-family="Helvetica" font-size="12" font-weight="normal" fill="#1A1F36">
                        <tspan x="9" y="19">4242 4242 4242 4242</tspan>
                    </text>
                    <g id="Visa" opacity="0.5" transform="translate(171.000000, 6.000000)" fill-rule="nonzero">
                        <rect id="Container" stroke="#0E6245" stroke-width="0.5" x="0.25" y="0.25" width="23.5" height="15.5" rx="2"></rect>
                        <path d="M3.28773262,5.91443732 C2.76459089,5.62750595 2.1675389,5.39673777 1.5,5.23659312 L1.5280005,5.1118821 L4.26497922,5.1118821 C4.63596254,5.12488556 4.93699113,5.23650585 5.03494636,5.63071135 L5.62976697,8.46659052 L5.81198338,9.32072617 L7.47796639,5.1118821 L9.27678896,5.1118821 L6.60288111,11.2775284 L4.80396552,11.2775284 L3.28773262,5.91443732 L3.28773262,5.91443732 Z M10.5999752,11.2840738 L8.89882877,11.2840738 L9.96284763,5.1118821 L11.663901,5.1118821 L10.5999752,11.2840738 Z M16.7667821,5.26277458 L16.5354292,6.59558538 L16.381566,6.53004446 C16.0737466,6.40524617 15.6674138,6.28053516 15.1143808,6.29371316 C14.442741,6.29371316 14.1415263,6.56277129 14.1345494,6.82545859 C14.1345494,7.11441463 14.498928,7.3048411 15.0939153,7.58725177 C16.0740257,8.02718756 16.5286384,8.56556562 16.5218476,9.26818871 C16.5080799,10.5486366 15.3460128,11.376058 13.5610509,11.376058 C12.7978746,11.3694253 12.0627918,11.2180965 11.663808,11.0475679 L11.9018587,9.66204513 L12.1258627,9.76066195 C12.6788958,9.99070971 13.0428092,10.0889775 13.721984,10.0889775 C14.2117601,10.0889775 14.7368857,9.89837643 14.7435835,9.48488392 C14.7435835,9.21565125 14.5198586,9.01850486 13.8617074,8.7164581 C13.217789,8.42086943 12.3568435,7.92848346 12.3707973,7.04197926 C12.3780532,5.84042483 13.5610509,5 15.2409877,5 C15.8990458,5 16.4312413,5.13788902 16.7667821,5.26277458 Z M19.0277524,9.0974856 L20.441731,9.0974856 C20.3717762,8.78889347 20.049631,7.31147374 20.049631,7.31147374 L19.9307452,6.77964104 C19.8467437,7.00942698 19.6998574,7.38373457 19.7069273,7.37055657 C19.7069273,7.37055657 19.1678479,8.74290137 19.0277524,9.0974856 Z M21.1276036,5.1118821 L22.5,11.2839865 L20.9249023,11.2839865 C20.9249023,11.2839865 20.7707601,10.5748181 20.721922,10.3581228 L18.5377903,10.3581228 C18.4746264,10.5221933 18.1807607,11.2839865 18.1807607,11.2839865 L16.3957988,11.2839865 L18.9226343,5.62399144 C19.0977072,5.22341512 19.4059917,5.1118821 19.8117663,5.1118821 L21.1276036,5.1118821 L21.1276036,5.1118821 Z" id="Shape" fill="#0D4B3B"></path>
                    </g>
                </g>
            </g>
        </g>
    </g>
</svg>
